!!!COM: Britten, (Edward) Benjamin
!!!OTL: Prelude and Fugue for Eighteen String Instruments, op. 29
!!!OMV:
!!!example: 808
!!!work: Bri-24
**kern	**dynam	**kern	**dynam	**kern	**dynam	**kern	**dynam	**kern	**dynam
*part5	*part5	*part4	*part4	*part3	*part3	*part2	*part2	*part1	*part1
*staff5	*	*staff4	*	*staff3	*	*staff2	*	*staff1	*
*I"Double Bass	*	*I"Violoncello	*	*I"Viola	*	*I"Violin II	*	*I"Violin I	*
*I'Db.	*	*I'Vc.	*	*I'Vla.	*	*I'Vln. II	*	*I'Vln. I	*
*clefF4	*	*clefF4	*	*clefC3	*	*clefG2	*	*clefG2	*
*k[f#c#]	*	*k[f#c#]	*	*k[f#c#]	*	*k[f#c#]	*	*k[f#c#]	*
*D:	*	*D:	*	*D:	*	*D:	*	*D:	*
*M4/4	*	*M4/4	*	*M4/4	*	*M4/4	*	*M4/4	*
=166	=	=	=	=	=	=	=	=	=
1r	.	1r	.	2r	.	2r	.	2r	.
.	.	.	.	(4A	ff	(4A	ff	(4A	ff
!	!	!	!	!LO:TX:t=expr. sempre sul G	!	!LO:TX:t=expr. sempre sul G	!	!LO:TX:t=expr. sempre sul G	!
.	.	.	.	4fn)	.	4fn)	.	4fn)	.
=167	=167	=167	=167	=167	=167	=167	=167	=167	=167
4r	.	4r	.	2.c#X	.	2.c#X	.	2.c#X	.
!LO:TX:t=pizz.	!	!LO:TX:t=pizz.	!	!	!	!	!	!	!
4CCCn 4CCn	fff	4CCn	fff	.	.	.	.	.	.
!LO:TX:t=pesante	!	!LO:TX:t=pesante	!	!	!	!	!	!	!
4FFFn	.	4FFn	.	.	.	.	.	.	.
8GGG#X^L	.	8GG#X^L	.	(4cn	<	(4cn	<	(4cn	<
8AAA^J	.	8AA^J	.	.	.	.	.	.	.
=168	=168	=168	=168	=168	=168	=168	=168	=168	=168
8r	.	8r	.	4a)	[	4a)	[	4a)	[
4CCCn 4CCn	.	4CCn	.	.	.	.	.	.	.
.	.	.	.	4fn~	.	4fn~	.	4fn~	.
4FFFn	.	4FFn	.	.	.	.	.	.	.
.	.	.	.	4c#X~	.	4c#X~	.	4c#X~	.
8GGG#X	.	8GG#X	.	.	.	.	.	.	.
4AAAn	.	4AAn	.	(8A#XL	>	(8A#XL	>	(8A#XL	>
.	.	.	.	[8BJ	]]	[8BJ	]]	[8BJ	]]
=169	=169	=169	=169	=169	=169	=169	=169	=169	=169
4r	.	4r	.	2B])	]	2B])	]	2B])	]
4DDD 4DD	.	4DD	.	.	.	.	.	.	.
4GGGn	.	4GG	.	(4G	.	(4G	.	(4G	.
8AAA#X^L	.	8AA#X^L	.	[4fn	.	[4fn	.	[4fn	.
8BBB^J	.	8BB^J	.	.	.	.	.	.	.
=170	=170	=170	=170	=170	=170	=170	=170	=170	=170
8r	.	8r	.	4f])	.	4f])	.	4f])	.
4DDD 4DD	.	4DD	.	.	.	.	.	.	.
.	.	.	.	4G~	.	4G~	.	4G~	.
4GGG	.	4GG	.	.	.	.	.	.	.
.	.	.	.	4fn~	.	4fn~	.	4fn~	.
4AAA#X	.	4AA#X	.	.	.	.	.	.	.
.	.	.	.	4d~	.	4d~	.	4d~	.
8BBB^	.	8BB^	.	.	.	.	.	.	.
=171	=171	=171	=171	=171	=171	=171	=171	=171	=171
!!linebreak:original
!	!	!	!	!LO:TX:t=sul D	!	!LO:TX:t=sul D	!	!LO:TX:t=sul D	!
4CCn	.	4Cn	.	(8e-XL	.	(8e-XL	.	(8e-XL	.
.	.	.	.	8g	.	8g	.	8g	.
4r	.	4r	.	8dd-X	.	8dd-X	.	8dd-X	.
.	.	.	.	[8ccnJ	.	[8ccnJ	.	[8ccnJ	.
8EE-XL	.	8E-XL	.	4cc])	.	4cc])	.	4cc])	.
8AA-X	.	8A-X	.	.	.	.	.	.	.
8BBn	.	8Bn	.	4cc~	.	4cc~	.	4cc~	.
8CnJ	.	8cnJ	.	.	.	.	.	.	.
*	*	*	*	*clefG2	*	*	*	*	*
=172	=172	=172	=172	=172	=172	=172	=172	=172	=172
8r	.	8r	.	4ddn~	.	4ddn~	.	4ddn~	.
4D^	.	4d^	.	.	.	.	.	.	.
.	.	.	.	4ee-X~	.	4ee-X~	.	4ee-X~	.
4E-X^	.	4e-X^	.	.	.	.	.	.	.
.	.	.	.	(4bn	.	(4bn	.	(4bn	.
4Cn	.	4cn	.	.	.	.	.	.	.
.	.	.	.	4ggn)	.	4ggn)	.	4ggn)	.
8Gn^	.	8gn^	.	.	.	.	.	.	.
=173	=173	=173	=173	=173	=173	=173	=173	=173	=173
8G#X	sf	8g#X	sf	8aa#XL	sf	(8aa#XL	sf	(8aa#XL	sf
8r	.	8r	.	[8bbJ	.	[8bbJ	.	[8bbJ	.
4r	.	4r	.	8bb]	.	2.bb_	.	2.bb_	.
.	.	.	.	8r	.	.	.	.	.
*	*	*	*	*clefC3	*	*	*	*	*
!LO:TX:t=arco	!	!LO:TX:t=arco	!	!	!	!	!	!	!
!LO:TX:t=mf sost.	!	!LO:TX:t=mf sost.	!	!	!	!	!	!	!
4BBB~	.	4BB~	.	4B~	.	.	.	.	.
4EEn~	.	4E~	.	4e~	.	.	.	.	.
=174||	=174||	=174||	=174||	=174||	=174||	=174||	=174||	=174||	=174||
*k[f#c#g#d#]	*	*k[f#c#g#d#]	*	*k[f#c#g#d#]	*	*k[f#c#g#d#]	*	*k[f#c#g#d#]	*
*E:	*	*E:	*	*E:	*	*E:	*	*E:	*
!	!	!	!	!	!	!LO:TX:t=dim.	!	!LO:TX:t=dim.	!
(8FF##X^	.	(8F##X^	.	(8f##X^	.	2bb])	.	2bb])	.
[4.GG#	.	[4.G#	.	[4.g#	.	.	.	.	.
8GG#])	.	8G#])	.	8g#])	.	(4gg#	mf	(4gg#	mf
4BBB	.	4BB	.	4B	.	.	.	.	.
.	.	.	.	.	.	4eee)	.	4eee)	.
[8EE	.	[8E	.	[8e	.	.	.	.	.
=175	=175	=175	=175	=175	=175	=175	=175	=175	=175
*	*	*	*	*	*	*^	*	*	*
8EEL]	.	8EL]	.	8eL]	.	2.cccn	4ccc#X	.	2.cccn	.
!LO:TX:t=dim.	!	!LO:TX:t=dim.	!	!LO:TX:t=dim.	!	!	!	!	!	!
(8FF##X~J	.	(8F##X~J	.	(8f##X~J	.	.	.	.	.	.
4GG#)	.	4G#)	.	4g#)	.	.	4r	.	.	.
4BBB	.	4BB	.	4B	.	.	2r	.	.	.
4EE	.	4E	.	4e	.	[4bb	.	.	[4bb	.
*	*	*	*	*	*	*v	*v	*	*	*
==	==	==	==	==	==	==	==	==	==
*-	*-	*-	*-	*-	*-	*-	*-	*-	*-
!!!CDT: 1913/11/22-1976/12/04
!!!CBL: Lowestoft, England
!!!CDL: Aldeburgh, England
!!!CNT: English
!!!AGN: Instrumental; Chamber
!!!MCN: Neel, Boyd
!!!MDT: 1943/06/23
!!!MGN: Boyd Neel Orchestra
!!!MLC: London, United Kingdom
!!!MPD: 1943
!!!MPN:
!!!ODT: 1943
!!!PDT: 1951
!!!excerpt-start-measure: 166
!!!excerpt-end-measure: 175
!!!excerpt-start-time: 6:25
!!!excerpt-end-time: 7:08
!!!EEV: 2020/01/17
!!!system-decoration: [(s1,s2,s3,s4,s5)]
!!!ONB: Converted from MusicXML on 2020/01/17
